packages/icons/svgs/solid/Source=menu.svg

<svg xmlns="http://www.w3.org/2000/svg" width="12" height="12" viewBox="0 0 12 12"><path d="M11.25 2.75H.75c-.45 0-.75.3-.75.75s.3.75.75.75h10.5c.45 0 .75-.3.75-.75s-.3-.75-.75-.75Zm0 6H.75c-.45 0-.75.3-.75.75s.3.75.75.75h10.5c.45 0 .75-.3.75-.75s-.3-.75-.75-.75Z"/></svg>

<svg width="12" height="12" viewBox="0 0 12 12" fill="none" xmlns="http://www.w3.org/2000/svg">
<path d="M11.25 2.75H0.75C0.3 2.75 0 3.05 0 3.5C0 3.95 0.3 4.25 0.75 4.25H11.25C11.7 4.25 12 3.95 12 3.5C12 3.05 11.7 2.75 11.25 2.75Z" fill="black"/>
<path d="M11.25 8.75H0.75C0.3 8.75 0 9.05 0 9.5C0 9.95 0.3 10.25 0.75 10.25H11.25C11.7 10.25 12 9.95 12 9.5C12 9.05 11.7 8.75 11.25 8.75Z" fill="black"/>
</svg>
